X: 20044
T: C'EST L'AMOUR.--O! 'TIS LOVE.
O: French air.
Q: "With spirit."
%R: air, jig
B: W. Hamilton "Universal Tune-Book" Vol. 2 Glasgow 1846 p.4 #4 (and p.5 #1)
S: http://s3-eu-west-1.amazonaws.com/itma.dl.printmaterial/book_pdfs/hamiltonvol2web.pdf
Z: 2016 John Chambers <jc:trillian.mit.edu>
M: 6/8
L: 1/8
K: Bb
%%slurgraces yes
%%graceslurs yes
% - - - - - - - - - - - - - - - - - - - - - - - - -
[|\
F2F F2F | F2F F2F | B2B {c}BAB | (=B3 c2)z |\
F2F F2F | F2F F2F | c2c cdc | B2z H|]\
FGA |\
B2B BcB | B2A AB=B | c2c cdc | B2z FGA |
B2B BcB | B2A AB=B | c2c cdc | B2z |]\
z2F |\
e3 cde | d3 dcB | A2A AGA | B3- B2F |\
e3 cde | d3 dcB | A2A AGA | Bdc BA"^D.C."G |]
% - - - - - - - - - - - - - - - - - - - - - - - - -

% (Continued from previous page)

%%sep 1 1 500
%%sep 1 1 500

